Newaita-dark/apps/48/com.github.kmal-kenneth.monilet.svg

<svg height="48" viewBox="0 0 48 48" width="48" xmlns="http://www.w3.org/2000/svg" xmlns:xlink="http://www.w3.org/1999/xlink"><linearGradient id="a" gradientUnits="userSpaceOnUse" x1="23.81478" x2="23.81478" y1="42.0509045" y2="44.03547050005"><stop offset="0" stop-opacity=".27451"/><stop offset="1" stop-opacity="0"/></linearGradient><linearGradient id="b"><stop offset="0" stop-opacity=".313726"/><stop offset=".222222" stop-opacity=".27451"/><stop offset="1" stop-opacity="0"/></linearGradient><radialGradient id="c" cx="450.908936" cy="189.579361" gradientTransform="matrix(.00000026 -.117199 -.210958 -.00000015 78.195972 95.392999)" gradientUnits="userSpaceOnUse" r="21.166656" xlink:href="#b"/><radialGradient id="d" cx="450.908936" cy="189.579361" gradientTransform="matrix(-.00000026 .117199 .210958 .00000015 -30.56642 -11.291218)" gradientUnits="userSpaceOnUse" r="21.166656" xlink:href="#b"/><radialGradient id="e" cx="450.908936" cy="189.579361" gradientTransform="matrix(-.00000026 -.117199 .210958 -.00000015 -30.56642 95.392999)" gradientUnits="userSpaceOnUse" r="21.166656" xlink:href="#b"/><radialGradient id="f" cx="450.908936" cy="189.579361" gradientTransform="matrix(.00000026 .117199 -.210958 .00000015 78.195969 -11.291219)" gradientUnits="userSpaceOnUse" r="21.166656" xlink:href="#b"/><linearGradient id="g" gradientUnits="userSpaceOnUse" x1="15.87652349995" x2="15.87652349995" y1="42.0509015" y2="4.3441580001"><stop offset="0" stop-color="#424242"/><stop offset="1" stop-color="#616161"/></linearGradient><path d="m8.929688 41.902344h29.769531v2.207031h-29.769531zm0 0" fill="url(#a)"/><path d="m38.699219 42.050781h3.96875v-1.984375h-3.96875zm0 0" fill="url(#c)"/><path d="m8.929688 42.050781h-3.96875v1.984375h3.96875zm0 0" fill="url(#d)"/><path d="m8.929688 42.050781h-3.96875v-1.984375h3.96875zm0 0" fill="url(#e)"/><path d="m38.699219 42.050781h3.96875v1.984375h-3.96875zm0 0" fill="url(#f)"/><path d="m6.945312 4.34375h33.738282c1.097656 0 1.984375.890625 1.984375 1.984375v33.738281c0 1.097656-.886719 1.984375-1.984375 1.984375h-33.738282c-1.09375 0-1.984374-.886719-1.984374-1.984375v-33.738281c0-1.09375.890624-1.984375 1.984374-1.984375zm0 0" fill="url(#g)"/><path d="m6.945312 4.34375c-1.097656 0-1.984374.886719-1.984374 1.984375v.25c0-1.101563.886718-1.988281 1.984374-1.984375h33.738282c1.097656-.003906 1.984375.882812 1.984375 1.984375v-.25c0-1.097656-.886719-1.984375-1.984375-1.984375zm0 0" fill="#e6e6e6" fill-opacity=".392157"/><path d="m6.945312 42.050781c-1.097656 0-1.984374-.886719-1.984374-1.984375v-.25c0 1.101563.886718 1.988282 1.984374 1.988282h33.738282c1.097656 0 1.984375-.886719 1.984375-1.988282v.25c0 1.097656-.886719 1.984375-1.984375 1.984375zm0 0" fill-opacity=".196078"/><path d="m74.076259-168.671091h359.840637c11.707216 0 21.164646 9.499093 21.164646 21.164646v359.840637c0 11.707215-9.45743 21.164645-21.164646 21.164645h-359.840637c-11.665552 0-21.164645-9.45743-21.164645-21.164645v-359.840637c0-11.665553 9.499093-21.164646 21.164645-21.164646zm0 0" fill="none" stroke="#212121" stroke-linecap="round" stroke-width="3" transform="matrix(.093759 0 0 .093759 0 20.158175)"/><path d="m23.816406 10.3125c-7.105468 0-12.886718 5.78125-12.886718 12.886719 0 .082031 0 .160156.003906.242187.125-6.996094 5.855468-12.648437 12.882812-12.648437 7.023438 0 12.753906 5.652343 12.878906 12.648437.003907-.082031.003907-.160156.003907-.242187 0-7.105469-5.78125-12.886719-12.882813-12.886719zm-8.945312 13.121094c0 .082031-.003906.164062-.003906.246094 0 3.511718 1.980468 6.496093 4.878906 7.972656.59375.292968 1 .867187 1.082031 1.523437.101563-.828125-.332031-1.632812-1.082031-2.003906-2.832032-1.441406-4.789063-4.328125-4.875-7.738281zm17.886718 0c-.085937 3.410156-2.042968 6.296875-4.875 7.738281-.75.371094-1.183593 1.171875-1.082031 2.003906.082031-.660156.488281-1.230469 1.082031-1.523437 2.898438-1.476563 4.878907-4.460938 4.878907-7.972656 0-.082032 0-.164063-.003907-.246094zm0 0" fill-opacity=".235294"/><path d="m23.816406 10.3125c-7.105468 0-12.886718 5.78125-12.886718 12.886719 0 5 2.851562 9.355469 7.03125 11.480469.628906.332031 1.386718.296874 1.980468-.085938.597656-.382812.941406-1.058594.902344-1.769531-.042969-.707031-.460938-1.339844-1.097656-1.652344-2.898438-1.476563-4.878906-4.460937-4.878906-7.972656 0-4.992188 3.957031-8.949219 8.949218-8.949219 4.988282 0 8.945313 3.957031 8.945313 8.949219 0 3.511719-1.980469 6.496093-4.878907 7.972656-.636718.3125-1.054687.945313-1.097656 1.652344-.039062.710937.304688 1.386719.902344 1.769531s1.355469.417969 1.980469.085938c4.179687-2.125 7.03125-6.480469 7.03125-11.480469 0-7.105469-5.78125-12.886719-12.882813-12.886719zm0 0" fill-opacity=".235294"/><path d="m23.816406 10.3125c-7.105468 0-12.886718 5.78125-12.886718 12.886719 0 5 2.851562 9.355469 7.03125 11.480469.628906.332031 1.386718.296874 1.980468-.085938.597656-.382812.941406-1.058594.902344-1.769531-.042969-.707031-.460938-1.339844-1.097656-1.652344-2.898438-1.476563-4.878906-4.460937-4.878906-7.972656 0-4.992188 3.957031-8.949219 8.949218-8.949219.707032.011719 1.371094-.359375 1.726563-.972656.359375-.617188.359375-1.375 0-1.988282-.355469-.613281-1.019531-.984374-1.726563-.976562zm0 0" fill="#26a69a"/><path d="m23.816406 14.316406c-4.863281 0-8.742187 3.753906-8.941406 8.5625 0-.046875 0-.09375-.003906-.140625 0 .085938-.003906.171875-.003906.257813 0 .125.003906.253906.007812.378906.199219-4.808594 4.078125-8.5625 8.941406-8.5625 4.859375 0 8.738282 3.753906 8.9375 8.5625.003906-.125.007813-.253906.007813-.378906 0-.085938-.003907-.171875-.003907-.257813 0 .046875-.003906.09375-.003906.140625-.199218-4.808594-4.078125-8.5625-8.9375-8.5625zm-12.882812 9.203125c0 .078125-.003906.160157-.003906.242188 0 5 2.851562 9.355469 7.03125 11.480469.648437.339843 1.433593.292968 2.035156-.128907.601562-.417969.921875-1.136719.828125-1.863281-.078125.640625-.46875 1.199219-1.039063 1.496094-.570312.300781-1.253906.300781-1.824218 0-4.109376-2.089844-6.933594-6.332032-7.027344-11.226563zm25.761718 0c-.09375 4.894531-2.917968 9.136719-7.027343 11.226563-.570313.300781-1.25.300781-1.820313.003906-.574218-.296875-.960937-.855469-1.042968-1.496094-.09375.726563.226562 1.445313.828124 1.863282.601563.417968 1.386719.464843 2.035157.125 4.179687-2.125 7.03125-6.480469 7.03125-11.480469 0-.082031 0-.164063-.003907-.242188zm0 0" fill="#fff" fill-opacity=".392157"/><path d="m254.017409-105.010503c-75.784429 0-137.445208 61.660778-137.445208 137.445207 0 53.328241 30.413763 99.782138 74.992839 122.446641 6.707693 3.541328 14.790254 3.166364 21.122983-.916579 6.374391-4.082944 10.040707-11.290589 9.624081-18.873198-.45829-7.540947-4.916198-14.290302-11.707216-17.623317-30.913714-15.748496-52.036697-47.57879-52.036697-85.033547 0-53.244915 42.204303-95.449218 95.449218-95.449218 53.203253 0 95.407556 42.204303 95.407556 95.449218 0 37.454757-21.122983 69.285051-52.036697 85.033547-6.791019 3.333015-11.248926 10.08237-11.707216 17.623317-.416627 7.582609 3.24969 14.790254 9.624081 18.873198 6.374391 4.082943 14.456953 4.457907 21.122983.916579 44.579076-22.664503 74.992838-69.1184 74.992838-122.446641 0-75.784429-61.660778-137.445207-137.403545-137.445207zm0 0" fill="none" stroke="#212121" stroke-linecap="round" stroke-linejoin="round" stroke-width="3" transform="matrix(.093759 0 0 .093759 0 20.158175)"/><path d="m23.816406 10.421875c-7.105468 0-12.886718 5.78125-12.886718 12.882813 0 .082031 0 .164062.003906.246093.125-6.996093 5.855468-12.648437 12.882812-12.648437 1-.015625 1.855469.726562 1.980469 1.722656.066406-.5625-.109375-1.128906-.492187-1.550781-.378907-.421875-.921876-.660157-1.488282-.652344zm-8.945312 13.117187c0 .082032-.003906.164063-.003906.246094 0 3.515625 1.980468 6.5 4.878906 7.976563.59375.292969 1 .863281 1.082031 1.523437.101563-.832031-.332031-1.632812-1.082031-2.003906-2.832032-1.441406-4.789063-4.328125-4.875-7.742188zm0 0" fill="#fff" fill-opacity=".392157"/><path d="m25.796875 12.035156c-.121094.996094-.976563 1.742188-1.980469 1.730469-4.992187 0-8.949218 3.953125-8.949218 8.945313 0 .078124.003906.160156.003906.238281.128906-4.871094 4.035156-8.699219 8.945312-8.699219.570313.007812 1.113282-.230469 1.496094-.65625.378906-.425781.554688-.992188.484375-1.558594zm-14.863281 10.921875c0 .082031-.003906.160157-.003906.242188 0 5 2.851562 9.355469 7.03125 11.480469.648437.34375 1.433593.292968 2.035156-.125.601562-.417969.925781-1.132813.832031-1.863282-.078125.640625-.46875 1.203125-1.039063 1.503906-.574218.300782-1.257812.300782-1.828124 0-4.109376-2.09375-6.933594-6.339843-7.027344-11.238281zm0 0" fill-opacity=".235294"/><path d="m254.017409-105.010503c-75.784429 0-137.445208 61.660778-137.445208 137.445207 0 53.328241 30.413763 99.782138 74.992839 122.446641 6.707693 3.541328 14.790254 3.166364 21.122983-.916579 6.374391-4.082944 10.040707-11.290589 9.624081-18.873198-.45829-7.540947-4.916198-14.290302-11.707216-17.623317-30.913714-15.748496-52.036697-47.57879-52.036697-85.033547 0-53.244915 42.204303-95.449218 95.449218-95.449218 7.540947.124988 14.623604-3.832967 18.414908-10.374009 3.832968-6.582705 3.832968-14.665266 0-21.206308-3.791304-6.541042-10.873961-10.498998-18.414908-10.415672zm0 0" fill="none" stroke="#212121" stroke-linecap="round" stroke-linejoin="round" stroke-width="3" transform="matrix(.093759 0 0 .093759 0 20.158175)"/></svg>

<?xml version="1.0" encoding="UTF-8"?>
<svg xmlns="http://www.w3.org/2000/svg" xmlns:xlink="http://www.w3.org/1999/xlink" width="48px" height="48px" viewBox="0 0 48 48" version="1.1">
<defs>
<linearGradient id="linear0" gradientUnits="userSpaceOnUse" x1="254" y1="233.5" x2="254" y2="254.666672" gradientTransform="matrix(0.093759,0,0,0.093759,-0.00000572259,20.158178)">
<stop offset="0" style="stop-color:rgb(0%,0%,0%);stop-opacity:0.27451;"/>
<stop offset="1" style="stop-color:rgb(0%,0%,0%);stop-opacity:0;"/>
</linearGradient>
<radialGradient id="radial0" gradientUnits="userSpaceOnUse" cx="450.908936" cy="189.579361" fx="450.908936" fy="189.579361" r="21.166656" gradientTransform="matrix(0.000000261256,-0.117199,-0.210958,-0.000000152308,78.195972,95.392999)">
<stop offset="0" style="stop-color:rgb(0%,0%,0%);stop-opacity:0.313726;"/>
<stop offset="0.222222" style="stop-color:rgb(0%,0%,0%);stop-opacity:0.27451;"/>
<stop offset="1" style="stop-color:rgb(0%,0%,0%);stop-opacity:0;"/>
</radialGradient>
<radialGradient id="radial1" gradientUnits="userSpaceOnUse" cx="450.908936" cy="189.579361" fx="450.908936" fy="189.579361" r="21.166656" gradientTransform="matrix(-0.000000261256,0.117199,0.210958,0.000000152308,-30.56642,-11.291218)">
<stop offset="0" style="stop-color:rgb(0%,0%,0%);stop-opacity:0.313726;"/>
<stop offset="0.222222" style="stop-color:rgb(0%,0%,0%);stop-opacity:0.27451;"/>
<stop offset="1" style="stop-color:rgb(0%,0%,0%);stop-opacity:0;"/>
</radialGradient>
<radialGradient id="radial2" gradientUnits="userSpaceOnUse" cx="450.908936" cy="189.579361" fx="450.908936" fy="189.579361" r="21.166656" gradientTransform="matrix(-0.000000261256,-0.117199,0.210958,-0.000000152308,-30.56642,95.392999)">
<stop offset="0" style="stop-color:rgb(0%,0%,0%);stop-opacity:0.313726;"/>
<stop offset="0.222222" style="stop-color:rgb(0%,0%,0%);stop-opacity:0.27451;"/>
<stop offset="1" style="stop-color:rgb(0%,0%,0%);stop-opacity:0;"/>
</radialGradient>
<radialGradient id="radial3" gradientUnits="userSpaceOnUse" cx="450.908936" cy="189.579361" fx="450.908936" fy="189.579361" r="21.166656" gradientTransform="matrix(0.000000261256,0.117199,-0.210958,0.000000152308,78.195969,-11.291219)">
<stop offset="0" style="stop-color:rgb(0%,0%,0%);stop-opacity:0.313726;"/>
<stop offset="0.222222" style="stop-color:rgb(0%,0%,0%);stop-opacity:0.27451;"/>
<stop offset="1" style="stop-color:rgb(0%,0%,0%);stop-opacity:0;"/>
</radialGradient>
<linearGradient id="linear1" gradientUnits="userSpaceOnUse" x1="169.333328" y1="233.5" x2="169.333328" y2="-168.666656" gradientTransform="matrix(0.093759,0,0,0.093759,0,20.158175)">
<stop offset="0" style="stop-color:rgb(25.882354%,25.882354%,25.882354%);stop-opacity:1;"/>
<stop offset="1" style="stop-color:rgb(38.039216%,38.039216%,38.039216%);stop-opacity:1;"/>
</linearGradient>
</defs>
<g id="surface1">
<path style=" stroke:none;fill-rule:nonzero;fill:url(#linear0);" d="M 8.929688 41.902344 L 38.699219 41.902344 L 38.699219 44.109375 L 8.929688 44.109375 Z M 8.929688 41.902344 "/>
<path style=" stroke:none;fill-rule:nonzero;fill:url(#radial0);" d="M 38.699219 42.050781 L 42.667969 42.050781 L 42.667969 40.066406 L 38.699219 40.066406 Z M 38.699219 42.050781 "/>
<path style=" stroke:none;fill-rule:nonzero;fill:url(#radial1);" d="M 8.929688 42.050781 L 4.960938 42.050781 L 4.960938 44.035156 L 8.929688 44.035156 Z M 8.929688 42.050781 "/>
<path style=" stroke:none;fill-rule:nonzero;fill:url(#radial2);" d="M 8.929688 42.050781 L 4.960938 42.050781 L 4.960938 40.066406 L 8.929688 40.066406 Z M 8.929688 42.050781 "/>
<path style=" stroke:none;fill-rule:nonzero;fill:url(#radial3);" d="M 38.699219 42.050781 L 42.667969 42.050781 L 42.667969 44.035156 L 38.699219 44.035156 Z M 38.699219 42.050781 "/>
<path style=" stroke:none;fill-rule:nonzero;fill:url(#linear1);" d="M 6.945312 4.34375 L 40.683594 4.34375 C 41.78125 4.34375 42.667969 5.234375 42.667969 6.328125 L 42.667969 40.066406 C 42.667969 41.164062 41.78125 42.050781 40.683594 42.050781 L 6.945312 42.050781 C 5.851562 42.050781 4.960938 41.164062 4.960938 40.066406 L 4.960938 6.328125 C 4.960938 5.234375 5.851562 4.34375 6.945312 4.34375 Z M 6.945312 4.34375 "/>
<path style=" stroke:none;fill-rule:nonzero;fill:rgb(90.196079%,90.196079%,90.196079%);fill-opacity:0.392157;" d="M 6.945312 4.34375 C 5.847656 4.34375 4.960938 5.230469 4.960938 6.328125 L 4.960938 6.578125 C 4.960938 5.476562 5.847656 4.589844 6.945312 4.59375 L 40.683594 4.59375 C 41.78125 4.589844 42.667969 5.476562 42.667969 6.578125 L 42.667969 6.328125 C 42.667969 5.230469 41.78125 4.34375 40.683594 4.34375 Z M 6.945312 4.34375 "/>
<path style=" stroke:none;fill-rule:nonzero;fill:rgb(0%,0%,0%);fill-opacity:0.196078;" d="M 6.945312 42.050781 C 5.847656 42.050781 4.960938 41.164062 4.960938 40.066406 L 4.960938 39.816406 C 4.960938 40.917969 5.847656 41.804688 6.945312 41.804688 L 40.683594 41.804688 C 41.78125 41.804688 42.667969 40.917969 42.667969 39.816406 L 42.667969 40.066406 C 42.667969 41.164062 41.78125 42.050781 40.683594 42.050781 Z M 6.945312 42.050781 "/>
<path style="fill:none;stroke-width:3;stroke-linecap:round;stroke-linejoin:miter;stroke:rgb(12.941177%,12.941177%,12.941177%);stroke-opacity:1;stroke-miterlimit:4;" d="M 74.076259 -168.671091 L 433.916896 -168.671091 C 445.624112 -168.671091 455.081542 -159.171998 455.081542 -147.506445 L 455.081542 212.334192 C 455.081542 224.041407 445.624112 233.498837 433.916896 233.498837 L 74.076259 233.498837 C 62.410707 233.498837 52.911614 224.041407 52.911614 212.334192 L 52.911614 -147.506445 C 52.911614 -159.171998 62.410707 -168.671091 74.076259 -168.671091 Z M 74.076259 -168.671091 " transform="matrix(0.093759,0,0,0.093759,0,20.158175)"/>
<path style=" stroke:none;fill-rule:nonzero;fill:rgb(0%,0%,0%);fill-opacity:0.235294;" d="M 23.816406 10.3125 C 16.710938 10.3125 10.929688 16.09375 10.929688 23.199219 C 10.929688 23.28125 10.929688 23.359375 10.933594 23.441406 C 11.058594 16.445312 16.789062 10.792969 23.816406 10.792969 C 30.839844 10.792969 36.570312 16.445312 36.695312 23.441406 C 36.699219 23.359375 36.699219 23.28125 36.699219 23.199219 C 36.699219 16.09375 30.917969 10.3125 23.816406 10.3125 Z M 14.871094 23.433594 C 14.871094 23.515625 14.867188 23.597656 14.867188 23.679688 C 14.867188 27.191406 16.847656 30.175781 19.746094 31.652344 C 20.339844 31.945312 20.746094 32.519531 20.828125 33.175781 C 20.929688 32.347656 20.496094 31.542969 19.746094 31.171875 C 16.914062 29.730469 14.957031 26.84375 14.871094 23.433594 Z M 32.757812 23.433594 C 32.671875 26.84375 30.714844 29.730469 27.882812 31.171875 C 27.132812 31.542969 26.699219 32.34375 26.800781 33.175781 C 26.882812 32.515625 27.289062 31.945312 27.882812 31.652344 C 30.78125 30.175781 32.761719 27.191406 32.761719 23.679688 C 32.761719 23.597656 32.761719 23.515625 32.757812 23.433594 Z M 32.757812 23.433594 "/>
<path style=" stroke:none;fill-rule:nonzero;fill:rgb(0%,0%,0%);fill-opacity:0.235294;" d="M 23.816406 10.3125 C 16.710938 10.3125 10.929688 16.09375 10.929688 23.199219 C 10.929688 28.199219 13.78125 32.554688 17.960938 34.679688 C 18.589844 35.011719 19.347656 34.976562 19.941406 34.59375 C 20.539062 34.210938 20.882812 33.535156 20.84375 32.824219 C 20.800781 32.117188 20.382812 31.484375 19.746094 31.171875 C 16.847656 29.695312 14.867188 26.710938 14.867188 23.199219 C 14.867188 18.207031 18.824219 14.25 23.816406 14.25 C 28.804688 14.25 32.761719 18.207031 32.761719 23.199219 C 32.761719 26.710938 30.78125 29.695312 27.882812 31.171875 C 27.246094 31.484375 26.828125 32.117188 26.785156 32.824219 C 26.746094 33.535156 27.089844 34.210938 27.6875 34.59375 C 28.285156 34.976562 29.042969 35.011719 29.667969 34.679688 C 33.847656 32.554688 36.699219 28.199219 36.699219 23.199219 C 36.699219 16.09375 30.917969 10.3125 23.816406 10.3125 Z M 23.816406 10.3125 "/>
<path style=" stroke:none;fill-rule:nonzero;fill:rgb(14.901961%,65.098041%,60.392159%);fill-opacity:1;" d="M 23.816406 10.3125 C 16.710938 10.3125 10.929688 16.09375 10.929688 23.199219 C 10.929688 28.199219 13.78125 32.554688 17.960938 34.679688 C 18.589844 35.011719 19.347656 34.976562 19.941406 34.59375 C 20.539062 34.210938 20.882812 33.535156 20.84375 32.824219 C 20.800781 32.117188 20.382812 31.484375 19.746094 31.171875 C 16.847656 29.695312 14.867188 26.710938 14.867188 23.199219 C 14.867188 18.207031 18.824219 14.25 23.816406 14.25 C 24.523438 14.261719 25.1875 13.890625 25.542969 13.277344 C 25.902344 12.660156 25.902344 11.902344 25.542969 11.289062 C 25.1875 10.675781 24.523438 10.304688 23.816406 10.3125 Z M 23.816406 10.3125 "/>
<path style=" stroke:none;fill-rule:nonzero;fill:rgb(100%,100%,100%);fill-opacity:0.392157;" d="M 23.816406 14.316406 C 18.953125 14.316406 15.074219 18.070312 14.875 22.878906 C 14.875 22.832031 14.875 22.785156 14.871094 22.738281 C 14.871094 22.824219 14.867188 22.910156 14.867188 22.996094 C 14.867188 23.121094 14.871094 23.25 14.875 23.375 C 15.074219 18.566406 18.953125 14.8125 23.816406 14.8125 C 28.675781 14.8125 32.554688 18.566406 32.753906 23.375 C 32.757812 23.25 32.761719 23.121094 32.761719 22.996094 C 32.761719 22.910156 32.757812 22.824219 32.757812 22.738281 C 32.757812 22.785156 32.753906 22.832031 32.753906 22.878906 C 32.554688 18.070312 28.675781 14.316406 23.816406 14.316406 Z M 10.933594 23.519531 C 10.933594 23.597656 10.929688 23.679688 10.929688 23.761719 C 10.929688 28.761719 13.78125 33.117188 17.960938 35.242188 C 18.609375 35.582031 19.394531 35.535156 19.996094 35.113281 C 20.597656 34.695312 20.917969 33.976562 20.824219 33.25 C 20.746094 33.890625 20.355469 34.449219 19.785156 34.746094 C 19.214844 35.046875 18.53125 35.046875 17.960938 34.746094 C 13.851562 32.65625 11.027344 28.414062 10.933594 23.519531 Z M 36.695312 23.519531 C 36.601562 28.414062 33.777344 32.65625 29.667969 34.746094 C 29.097656 35.046875 28.417969 35.046875 27.847656 34.75 C 27.273438 34.453125 26.886719 33.894531 26.804688 33.253906 C 26.710938 33.980469 27.03125 34.699219 27.632812 35.117188 C 28.234375 35.535156 29.019531 35.582031 29.667969 35.242188 C 33.847656 33.117188 36.699219 28.761719 36.699219 23.761719 C 36.699219 23.679688 36.699219 23.597656 36.695312 23.519531 Z M 36.695312 23.519531 "/>
<path style="fill:none;stroke-width:3;stroke-linecap:round;stroke-linejoin:round;stroke:rgb(12.941177%,12.941177%,12.941177%);stroke-opacity:1;stroke-miterlimit:4;" d="M 254.017409 -105.010503 C 178.23298 -105.010503 116.572201 -43.349725 116.572201 32.434704 C 116.572201 85.762945 146.985964 132.216842 191.56504 154.881345 C 198.272733 158.422673 206.355294 158.047709 212.688023 153.964766 C 219.062414 149.881822 222.72873 142.674177 222.312104 135.091568 C 221.853814 127.550621 217.395906 120.801266 210.604888 117.468251 C 179.691174 101.719755 158.568191 69.889461 158.568191 32.434704 C 158.568191 -20.810211 200.772494 -63.014514 254.017409 -63.014514 C 307.220662 -63.014514 349.424965 -20.810211 349.424965 32.434704 C 349.424965 69.889461 328.301982 101.719755 297.388268 117.468251 C 290.597249 120.801266 286.139342 127.550621 285.681052 135.091568 C 285.264425 142.674177 288.930742 149.881822 295.305133 153.964766 C 301.679524 158.047709 309.762086 158.422673 316.428116 154.881345 C 361.007192 132.216842 391.420954 85.762945 391.420954 32.434704 C 391.420954 -43.349725 329.760176 -105.010503 254.017409 -105.010503 Z M 254.017409 -105.010503 " transform="matrix(0.093759,0,0,0.093759,0,20.158175)"/>
<path style=" stroke:none;fill-rule:nonzero;fill:rgb(100%,100%,100%);fill-opacity:0.392157;" d="M 23.816406 10.421875 C 16.710938 10.421875 10.929688 16.203125 10.929688 23.304688 C 10.929688 23.386719 10.929688 23.46875 10.933594 23.550781 C 11.058594 16.554688 16.789062 10.902344 23.816406 10.902344 C 24.816406 10.886719 25.671875 11.628906 25.796875 12.625 C 25.863281 12.0625 25.6875 11.496094 25.304688 11.074219 C 24.925781 10.652344 24.382812 10.414062 23.816406 10.421875 Z M 14.871094 23.539062 C 14.871094 23.621094 14.867188 23.703125 14.867188 23.785156 C 14.867188 27.300781 16.847656 30.285156 19.746094 31.761719 C 20.339844 32.054688 20.746094 32.625 20.828125 33.285156 C 20.929688 32.453125 20.496094 31.652344 19.746094 31.28125 C 16.914062 29.839844 14.957031 26.953125 14.871094 23.539062 Z M 14.871094 23.539062 "/>
<path style=" stroke:none;fill-rule:nonzero;fill:rgb(0%,0%,0%);fill-opacity:0.235294;" d="M 25.796875 12.035156 C 25.675781 13.03125 24.820312 13.777344 23.816406 13.765625 C 18.824219 13.765625 14.867188 17.71875 14.867188 22.710938 C 14.867188 22.789062 14.871094 22.871094 14.871094 22.949219 C 15 18.078125 18.90625 14.25 23.816406 14.25 C 24.386719 14.257812 24.929688 14.019531 25.3125 13.59375 C 25.691406 13.167969 25.867188 12.601562 25.796875 12.035156 Z M 10.933594 22.957031 C 10.933594 23.039062 10.929688 23.117188 10.929688 23.199219 C 10.929688 28.199219 13.78125 32.554688 17.960938 34.679688 C 18.609375 35.023438 19.394531 34.972656 19.996094 34.554688 C 20.597656 34.136719 20.921875 33.421875 20.828125 32.691406 C 20.75 33.332031 20.359375 33.894531 19.789062 34.195312 C 19.214844 34.496094 18.53125 34.496094 17.960938 34.195312 C 13.851562 32.101562 11.027344 27.855469 10.933594 22.957031 Z M 10.933594 22.957031 "/>
<path style="fill:none;stroke-width:3;stroke-linecap:round;stroke-linejoin:round;stroke:rgb(12.941177%,12.941177%,12.941177%);stroke-opacity:1;stroke-miterlimit:4;" d="M 254.017409 -105.010503 C 178.23298 -105.010503 116.572201 -43.349725 116.572201 32.434704 C 116.572201 85.762945 146.985964 132.216842 191.56504 154.881345 C 198.272733 158.422673 206.355294 158.047709 212.688023 153.964766 C 219.062414 149.881822 222.72873 142.674177 222.312104 135.091568 C 221.853814 127.550621 217.395906 120.801266 210.604888 117.468251 C 179.691174 101.719755 158.568191 69.889461 158.568191 32.434704 C 158.568191 -20.810211 200.772494 -63.014514 254.017409 -63.014514 C 261.558356 -62.889526 268.641013 -66.847481 272.432317 -73.388523 C 276.265285 -79.971228 276.265285 -88.053789 272.432317 -94.594831 C 268.641013 -101.135873 261.558356 -105.093829 254.017409 -105.010503 Z M 254.017409 -105.010503 " transform="matrix(0.093759,0,0,0.093759,0,20.158175)"/>
</g>
</svg>
